X: 18475
T: Hut On Staffin Island, The
R: hornpipe
M: 4/4
K: Gmajor
GE|:DEGA G3A|(3BAG Bd g2 fg|e3g edBG|A2 GA GEEG|
DEGA G3A|(3BAG Bd g2 fg|e3g edBG|1 A2 GA GEEG:|2 A2 BA G3 E||
g4 g2 ag|fefg e2 d2|e3 d efge|dBAB GEEG|
g4 g2 ag|fefg e2 d2|e3 d efge|dBAB G4|
g4 g2 ag|fefg e2 d2|e3 d efge|dBAB GEEG|
DEGA G3A|(3BAG Bd g2 fg|e3g edBG|A2 BA G4||

